X:321
T:Sailor's Bonnet
Z: id:dc-reel-299
M:C
L:1/8
K:D Major
A2FA dfef|dfec dBB2|A2FA dfec|dBAG FDD2|!
A2FA dff2|dfec dBB2|A2FA dfec|dBAG FDD2|]!
faab afdf|afef dBB2|fbb2 bafa|b2af fee2|!
bff2 aff2|afef dBB2|A2FA dfec|dBAG FDD2:|!